files/2/32x32/places/user-desktop.svg

<svg width="32" xmlns="http://www.w3.org/2000/svg" height="32" viewBox="0 0 32 32" xmlns:xlink="http://www.w3.org/1999/xlink">
<g style="stroke:#e9a439" transform="translate(0 1)">
<path style="fill:#e9a439" d="M 4.3464647,24.5 C 3.8874205,24.452956 3.5,23.991935 3.5,23.497984 L 3.5,4.5067202 C 3.5,3.9798389 3.946022,3.5 4.437622,3.5 l 23.124756,0 C 28.053978,3.5 28.5,3.9798389 28.5,4.5067202 l 0,16.2350548 c 0,0.526881 -0.718078,1.28348 -1.209678,1.28348 l -8.465029,-0.01481 0,1.324124 c 0,0.522177 -0.411445,1.165426 -0.899787,1.165426 l -13.487884,0 c -0.0293,0 -0.058601,0 -0.091156,0 z"/>
<path style="fill:#f5c14e" d="M 1.5496163,5.5 C 0.9804014,5.5470431 0.5000001,6.0080649 0.5000001,6.5020161 l 0,18.9912639 c 0,0.526881 0.5530672,1.00672 1.1626514,1.00672 l 28.6746975,0 C 30.946933,26.5 31.5,26.020161 31.5,25.49328 l 0,-16.2350547 C 31.5,8.7313437 30.609584,7.9747449 30,7.9747449 l -10.496636,0.014805 0,-1.3241241 C 19.503364,6.1432479 18.993173,5.5 18.387626,5.5 l -16.7249745,0 c -0.036332,0 -0.072665,0 -0.1130352,0 z"/>
</g>
<g style="fill:#e9a439">
<path style="fill-rule:evenodd" d="M 10.667969 14 L 10.667969 15.332031 L 11.332031 15.332031 L 11.332031 14.332031 C 11.332031 13.996094 11.667969 13.996094 11.667969 13.996094 L 12.667969 14 L 12.667969 13.332031 L 11.332031 13.332031 C 11.332031 13.332031 10.667969 13.332031 10.667969 14 Z M 19.332031 13.332031 L 19.332031 14 L 20.332031 14 C 20.332031 14 20.667969 13.996094 20.667969 14.332031 L 20.667969 15.332031 L 21.332031 15.332031 L 21.332031 14 C 21.332031 13.332031 20.667969 13.332031 20.667969 13.332031 Z M 10.667969 20.667969 L 10.667969 22 C 10.667969 22.667969 11.332031 22.667969 11.332031 22.667969 L 12.667969 22.667969 L 12.667969 22 L 11.667969 22.003906 C 11.332031 22 11.332031 21.671875 11.332031 21.671875 L 11.332031 20.667969 Z M 20.667969 20.667969 L 20.667969 21.667969 C 20.667969 21.996094 20.332031 22 20.332031 22 L 19.332031 22 L 19.332031 22.667969 L 20.667969 22.667969 C 20.667969 22.667969 21.332031 22.667969 21.332031 22 L 21.332031 20.667969 Z "/>
<path d="M 12.667969 15.996094 L 12.667969 18.664062 C 12.667969 19.328125 13.332031 19.328125 13.332031 19.328125 L 15.332031 19.328125 C 16 19.328125 16 18.664062 16 18.664062 L 16 16.664062 L 14.667969 15.328125 L 13.332031 15.328125 C 13.332031 15.328125 12.667969 15.328125 12.667969 15.996094 Z M 13.332031 15.996094 L 14.667969 15.996094 L 14.667969 16.664062 L 15.332031 16.664062 L 15.332031 18.664062 L 13.332031 18.664062 Z "/>
</g>
</svg>

<?xml version="1.0" encoding="UTF-8" standalone="no"?>
<svg
   xmlns:dc="http://purl.org/dc/elements/1.1/"
   xmlns:cc="http://creativecommons.org/ns#"
   xmlns:rdf="http://www.w3.org/1999/02/22-rdf-syntax-ns#"
   xmlns:svg="http://www.w3.org/2000/svg"
   xmlns="http://www.w3.org/2000/svg"
   xmlns:sodipodi="http://sodipodi.sourceforge.net/DTD/sodipodi-0.dtd"
   xmlns:inkscape="http://www.inkscape.org/namespaces/inkscape"
   width="32"
   height="32"
   viewBox="0 0 32 32"
   id="svg3391"
   version="1.1"
   inkscape:version="0.48.4 r9939"
   sodipodi:docname="user-desktop.svg">
  <metadata
     id="metadata3409">
    <rdf:RDF>
      <cc:Work
         rdf:about="">
        <dc:format>image/svg+xml</dc:format>
        <dc:type
           rdf:resource="http://purl.org/dc/dcmitype/StillImage" />
      </cc:Work>
    </rdf:RDF>
  </metadata>
  <defs
     id="defs3407" />
  <sodipodi:namedview
     pagecolor="#ffffff"
     bordercolor="#666666"
     borderopacity="1"
     objecttolerance="10"
     gridtolerance="10"
     guidetolerance="10"
     inkscape:pageopacity="0"
     inkscape:pageshadow="2"
     inkscape:window-width="658"
     inkscape:window-height="480"
     id="namedview3405"
     showgrid="false"
     inkscape:zoom="7.375"
     inkscape:cx="17.220339"
     inkscape:cy="13.830508"
     inkscape:window-x="0"
     inkscape:window-y="0"
     inkscape:window-maximized="0"
     inkscape:current-layer="svg3391" />
  <path
     inkscape:connector-curvature="0"
     id="path3009"
     d="M 4.346464,25.5 C 3.88742,25.45296 3.5,24.991935 3.5,24.497984 L 3.5,5.50672 C 3.5,4.9798387 3.946022,4.4999998 4.437622,4.4999998 l 23.124756,0 c 0.4916,0 0.937622,0.4798389 0.937622,1.0067202 l 0,16.235055 c 0,0.526881 -0.718078,1.28348 -1.209678,1.28348 l -8.465029,-0.01481 0,1.324124 c 0,0.522177 -0.411445,1.165426 -0.899787,1.165426 l -13.487884,0 c -0.0293,0 -0.0586,0 -0.09116,0 z"
     style="fill:#e9a439;fill-opacity:1;stroke:#e9a439;stroke-opacity:1" />
  <path
     inkscape:connector-curvature="0"
     id="path3011"
     d="M 1.549616,6.4999998 C 0.980401,6.5470428 0.5,7.0080647 0.5,7.5020159 L 0.5,26.49328 C 0.5,27.020161 1.053067,27.5 1.662651,27.5 l 28.674698,0 C 30.946933,27.5 31.5,27.020161 31.5,26.49328 l 0,-16.235055 c 0,-0.526882 -0.890416,-1.28348 -1.5,-1.28348 l -10.496636,0.0148 0,-1.3241244 c 0,-0.5221779 -0.510191,-1.1654258 -1.115738,-1.1654258 l -16.724975,0 c -0.03633,0 -0.07267,0 -0.113035,0 z"
     style="fill:#f5c14e;fill-opacity:1;stroke:#e9a439;stroke-opacity:1" />
  <path
     inkscape:connector-curvature="0"
     id="path3401"
     d="m 10.667969,14 0,1.332031 0.664062,0 0,-1 c 0,-0.335937 0.335938,-0.335937 0.335938,-0.335937 l 1,0.0039 0,-0.667969 -1.335938,0 c 0,0 -0.664062,0 -0.664062,0.667969 z m 8.664062,-0.667969 0,0.667969 1,0 c 0,0 0.335938,-0.0039 0.335938,0.332031 l 0,1 0.664062,0 0,-1.332031 c 0,-0.667969 -0.664062,-0.667969 -0.664062,-0.667969 z m -8.664062,7.335938 0,1.332031 c 0,0.667969 0.664062,0.667969 0.664062,0.667969 l 1.335938,0 0,-0.667969 -1,0.0039 C 11.332031,22 11.332031,21.671875 11.332031,21.671875 l 0,-1.003906 z m 10,0 0,1 C 20.667969,21.996094 20.332031,22 20.332031,22 l -1,0 0,0.667969 1.335938,0 c 0,0 0.664062,0 0.664062,-0.667969 l 0,-1.332031 z"
     style="fill:#d0a444;fill-opacity:1;fill-rule:evenodd" />
  <path
     inkscape:connector-curvature="0"
     style="fill:#d0a444;fill-opacity:1"
     id="path3403"
     d="m 12.667969,15.996094 0,2.667968 c 0,0.664063 0.664062,0.664063 0.664062,0.664063 l 2,0 C 16,19.328125 16,18.664062 16,18.664062 l 0,-2 -1.332031,-1.335937 -1.335938,0 c 0,0 -0.664062,0 -0.664062,0.667969 z m 0.664062,0 1.335938,0 0,0.667968 0.664062,0 0,2 -2,0 z" />
</svg>
